X:2611
T:Halling
C:anon., arr. Frank Nordberg
O:Norway
Z:Transcribed by Frank Nordberg - http://www.musicaviva.com
F:http://abc.musicaviva.com/tunes/norway/halling-03g/halling-03g-4m.abc
V:1 Program 1 40 %Violin
V:2 Program 1 40 %Violin
V:3 Program 1 41 alto %Viola
V:4 Program 1 42 bass %Cello
M:2/4
L:1/8
Q:1/4=188
K:G
V:1
B2 de|c2 dB|G2 AB|G2 G2|B2 de|c2 dB|G4|D2 z2|
V:2
G2 z2|G2 z2|F2 z2|E2 z2|D2 z2|F2 z2|D4|B,2 z2|
V:3
D2 z2|E2 z2|D2 z2|C2 z2|B,2 z2|A,2 z2|B,4|G,2 z2|
V:4
G,2 z2|G,2 z2|G,2 z2|G,2 z2|G,2 z2|G,2 z2|G,4|G,,2 z2|
%
V:1
G2 z2|G2 z2|F2 z2|E2 z2|D2 z2|F2 z2|D2 z2|B,2 z2|
V:2
B2 de|c2 dB|G2 AB|G2 G2|B2 de|c2 dB|G4|D2 z2|
V:3
D2 z2|E2 z2|D2 z2|C2 z2|B,2 z2|C2 z2|B,2 z2|G,2 D,2|
V:4
z2 G,2|z2 G,2|z2 G,2|z2 G,2|z2 G,2|A,2 G,2|z2 G,2|z2 G,,2|
%
V:1
z4|z4|f2 de|^c2 d2|z4|z4|f2 d^c|d4|
V:2
z4|z4|F2 DE|^C2 D2|z4|z4|F2 D^C|D4|
V:3
D2 DE|^C2 D2|z4|z4|D2 DE|^C2 D2|z4|z4|
V:4
D,2 D,E,|^C,2 D,2|z4|z4|D,2 D,E,|^C,2 D,2|z4|z4|
%
V:1
G4|F4|f2 de|^c2 d2|A4|^G4|f2 d^c|d4|
V:2
D2 DE|^C2 D2|^G4|=G4|D2 DE|^C2 D2|G4-|G2F2|
V:3
B,4|A,4|F2 DE|^C2 D2|F4|=F4|^F2 D^C|D4|
V:4
D,2 D,E,|^C,2 D,2|B,4|^A,4|D,2 D,E,|^C,2 D,2|E,2 A,,2|D,,4|
%
V:1
z2 B,2|C2 D2|z2 E2|D2 C2|z2 B,2|C2 D2|z2 A,2|B,2 z2|
V:2
B2 de|c2 dB|G2 AB|G2 G2|B2 de|c2 dB|G4|G2 z2|
V:3
B,2 DE|C2 DB,|G,2 A,B,|G,2 G,2|B,2 DE|C2 DB,|G,4|G,2 z2|
V:4
G,,2 D,2|E,2 F,2|G,,2 G,2|F,2 E,2|G,,2 D,2|E,2 F,2|G,,2 C,2|D,2 G,2|
%
V:1
B2 de|c2 dB|G2 AB|G2 G2|B2 de|c2 dB|G4|G2 z2|]
V:2
z2 =F2-|=F2 =F2|z2 E2-|E2 E2|z2 G2-|G2 ^F2|z2 =C2|B,2 z2|]
V:3
z2 B,2-|B,2 B,2|z2 B,2-|B,2 B,2|z2 B,2-|B,2 A,2|z2 E,2|D,2 z2|]
V:4
G,,2 D,2-|D,2 D,2|G,,2 ^C,2-|^C,2 ^C,2|G,,2 D,2-|D,2 =C,2|z2 G,,2-|G,,2 z2|]
W:
W:
W:  From Musica Viva - http://www.musicaviva.com
W:  the Internet center for free sheet music downloads.
